styles/2/Numix/22/places/brown-folder-copy.svg

<?xml version="1.0" encoding="UTF-8" standalone="no"?>
<svg
   xmlns:dc="http://purl.org/dc/elements/1.1/"
   xmlns:cc="http://creativecommons.org/ns#"
   xmlns:rdf="http://www.w3.org/1999/02/22-rdf-syntax-ns#"
   xmlns:svg="http://www.w3.org/2000/svg"
   xmlns="http://www.w3.org/2000/svg"
   xmlns:sodipodi="http://sodipodi.sourceforge.net/DTD/sodipodi-0.dtd"
   xmlns:inkscape="http://www.inkscape.org/namespaces/inkscape"
   width="22"
   height="22"
   viewBox="0 0 22 22"
   id="svg2"
   version="1.1"
   inkscape:version="0.91 r"
   sodipodi:docname="brown-folder-copy.svg">
  <metadata
     id="metadata20">
    <rdf:RDF>
      <cc:Work
         rdf:about="">
        <dc:format>image/svg+xml</dc:format>
        <dc:type
           rdf:resource="http://purl.org/dc/dcmitype/StillImage" />
      </cc:Work>
    </rdf:RDF>
  </metadata>
  <defs
     id="defs18" />
  <sodipodi:namedview
     pagecolor="#ffffff"
     bordercolor="#666666"
     borderopacity="1"
     objecttolerance="10"
     gridtolerance="10"
     guidetolerance="10"
     inkscape:pageopacity="0"
     inkscape:pageshadow="2"
     inkscape:window-width="1280"
     inkscape:window-height="969"
     id="namedview16"
     showgrid="true"
     inkscape:zoom="15.170655"
     inkscape:cx="3.4155513"
     inkscape:cy="9.4778024"
     inkscape:window-x="0"
     inkscape:window-y="0"
     inkscape:window-maximized="1"
     inkscape:current-layer="svg2">
    <inkscape:grid
       type="xygrid"
       id="grid2997" />
  </sodipodi:namedview>
  <path
     inkscape:connector-curvature="0"
     id="path14-5-7"
     d="M 0.905047,4.5 C 0.685489,4.52171 0.499999,4.695386 0.499999,4.883536 l 0,7.236546 c 0,0.199005 0.211988,0.379918 0.450474,0.379918 l 11.099054,0 C 12.284228,12.5 12.5,12.319087 12.5,12.120082 l 0,-6.563547 c 0,-0.202623 -0.215772,-0.383536 -0.450473,-0.383536 l -4.334385,0 0,-0.289463 C 7.715142,4.684532 7.499369,4.503618 7.264669,4.5 l -6.314196,0 c -0.01514,0 -0.03028,0 -0.04543,0 z"
     style="fill:#8d6e63;stroke:#a57953" />
  <path
     style="font-size:medium;font-style:normal;font-variant:normal;font-weight:normal;font-stretch:normal;text-indent:0;text-align:start;text-decoration:none;line-height:normal;letter-spacing:normal;word-spacing:normal;text-transform:none;direction:ltr;block-progression:tb;writing-mode:lr-tb;text-anchor:start;baseline-shift:baseline;color:#000000;fill:#8d6e63;fill-opacity:1;fill-rule:nonzero;stroke:none;stroke-width:1.03313816;marker:none;visibility:visible;display:inline;overflow:visible;enable-background:accumulate;font-family:Sans;-inkscape-font-specification:Sans"
     d="M 3,2 C 2.452669,2 2,2.409688 2,3 L 2,3 1,3 C 0.498073,3 0,3.384749 0,4 c -1.6e-5,4.593749 0,3.40625 0,8 0,0.545771 0.493417,1 1,1 l 11,0 c 0.515688,0 1,-0.437034 1,-1 L 13,5 C 13,4.422979 12.576701,3.985038 12,4 L 10,4 10,3 C 10,2.512575 9.598176,2 9,2 z"
     id="path2995-6"
     inkscape:connector-curvature="0"
     sodipodi:nodetypes="ccccccssssscssc" />
  <path
     style="font-size:medium;font-style:normal;font-variant:normal;font-weight:normal;font-stretch:normal;text-indent:0;text-align:start;text-decoration:none;line-height:normal;letter-spacing:normal;word-spacing:normal;text-transform:none;direction:ltr;block-progression:tb;writing-mode:lr-tb;text-anchor:start;baseline-shift:baseline;color:#000000;fill:#000000;fill-opacity:0.32156863;fill-rule:nonzero;stroke:none;stroke-width:1.03313816;marker:none;visibility:visible;display:inline;overflow:visible;enable-background:accumulate;font-family:Sans;-inkscape-font-specification:Sans"
     d="M 3,2 C 2.455546,2 1.999988,2.407622 2,3 L 1.464427,3 1,3 C 0.493241,3 0,3.396468 0,4 c -2.7e-5,4.593749 0,3.40625 0,8 0,0.487177 0.419199,1 1,1 l 11,0 c 0.521212,0 1,-0.442558 1,-1 L 13,5 C 13,4.426885 12.606096,4 12,4 L 10,4 10,3 C 10,2.441488 9.542567,2 9,2 z m 5,2 0,1 4,0 0,7 -11,0 0,-8 z"
     id="path3786-8"
     inkscape:connector-curvature="0"
     sodipodi:nodetypes="scccccssssscsssccccccc" />
  <path
     sodipodi:nodetypes="ccccccssssscssc"
     inkscape:connector-curvature="0"
     id="path3784-5"
     d="M 3,2 C 2.452669,2 2,2.409688 2,3 L 2,3 1,3 C 0.498073,3 0,3.384749 0,4 c -1.5e-5,4.593749 0,3.40625 0,8 0,0.545771 0.493417,1 1,1 l 11,0 c 0.515688,0 1,-0.437034 1,-1 L 13,5 C 13,4.422979 12.576701,3.985038 12,4 L 10,4 10,3 C 10,2.512575 9.598176,2 9,2 z"
     style="font-size:medium;font-style:normal;font-variant:normal;font-weight:normal;font-stretch:normal;text-indent:0;text-align:start;text-decoration:none;line-height:normal;letter-spacing:normal;word-spacing:normal;text-transform:none;direction:ltr;block-progression:tb;writing-mode:lr-tb;text-anchor:start;baseline-shift:baseline;color:#000000;fill:#000000;fill-opacity:0.10196078;fill-rule:nonzero;stroke:none;stroke-width:1.03313816;marker:none;visibility:visible;display:inline;overflow:visible;enable-background:accumulate;font-family:Sans;-inkscape-font-specification:Sans" />
  <path
     inkscape:connector-curvature="0"
     id="path14-5-6"
     d="m 9.905047,10.5 c -0.219558,0.02171 -0.405048,0.195386 -0.405048,0.383536 l 0,7.236546 c 0,0.199005 0.211988,0.379918 0.450474,0.379918 l 11.099054,0 C 21.284228,18.5 21.5,18.319087 21.5,18.120082 l 0,-6.563547 c 0,-0.202623 -0.215772,-0.383536 -0.450473,-0.383536 l -4.334385,0 0,-0.289463 c 0,-0.199004 -0.215773,-0.379918 -0.450473,-0.383536 l -6.314196,0 c -0.01514,0 -0.03028,0 -0.04543,0 z"
     style="fill:#8d6e63;stroke:#a57953" />
  <path
     style="font-size:medium;font-style:normal;font-variant:normal;font-weight:normal;font-stretch:normal;text-indent:0;text-align:start;text-decoration:none;line-height:normal;letter-spacing:normal;word-spacing:normal;text-transform:none;direction:ltr;block-progression:tb;writing-mode:lr-tb;text-anchor:start;baseline-shift:baseline;color:#000000;fill:#8d6e63;fill-opacity:1;fill-rule:nonzero;stroke:none;stroke-width:1.03313816;marker:none;visibility:visible;display:inline;overflow:visible;enable-background:accumulate;font-family:Sans;-inkscape-font-specification:Sans"
     d="m 12,8 c -0.547331,0 -1,0.409688 -1,1 l 0,0 -1,0 c -0.501927,0 -1,0.384749 -1,1 -1.5e-5,4.593749 0,3.40625 0,8 0,0.545771 0.493417,1 1,1 l 11,0 c 0.515688,0 1,-0.437034 1,-1 l 0,-7 c 0,-0.577021 -0.423299,-1.014962 -1,-1 l -2,0 0,-1 C 19,8.512575 18.598176,8 18,8 z"
     id="path2995-3"
     inkscape:connector-curvature="0"
     sodipodi:nodetypes="ccccccssssscssc" />
  <path
     style="font-size:medium;font-style:normal;font-variant:normal;font-weight:normal;font-stretch:normal;text-indent:0;text-align:start;text-decoration:none;line-height:normal;letter-spacing:normal;word-spacing:normal;text-transform:none;direction:ltr;block-progression:tb;writing-mode:lr-tb;text-anchor:start;baseline-shift:baseline;color:#000000;fill:#000000;fill-opacity:0.32156863;fill-rule:nonzero;stroke:none;stroke-width:1.03313816;marker:none;visibility:visible;display:inline;overflow:visible;enable-background:accumulate;font-family:Sans;-inkscape-font-specification:Sans"
     d="M 12,8 C 11.455546,8 10.999988,8.407622 11,9 L 10.464427,9 10,9 c -0.506759,0 -1,0.396468 -1,1 -2.6e-5,4.593749 0,3.40625 0,8 0,0.487177 0.419199,1 1,1 l 11,0 c 0.521212,0 1,-0.442558 1,-1 l 0,-7 c 0,-0.573115 -0.393904,-1 -1,-1 l -2,0 0,-1 C 19,8.441488 18.542567,8 18,8 z m 5,2 0,1 4,0 0,7 -11,0 0,-8 z"
     id="path3786-1"
     inkscape:connector-curvature="0"
     sodipodi:nodetypes="scccccssssscsssccccccc" />
</svg>

<svg xmlns="http://www.w3.org/2000/svg" viewBox="0 0 22 22">
 <path d="m 0.905 4.5 c -0.22 0.022 -0.405 0.195 -0.405 0.384 l 0 7.237 c 0 0.199 0.212 0.38 0.45 0.38 l 11.1 0 c 0.235 0 0.45 -0.181 0.45 -0.38 l 0 -6.564 c 0 -0.203 -0.216 -0.384 -0.45 -0.384 l -4.334 0 0 -0.289 c 0 -0.199 -0.216 -0.38 -0.45 -0.384 l -6.314 0 c -0.015 0 -0.03 0 -0.045 0 z" style="fill:#8d6e63;stroke:#a57953"/>
 <path d="m 3 2 c -0.547 0 -1 0.41 -1 1 l 0 0 -1 0 c -0.502 0 -1 0.385 -1 1 c 0 4.594 0 3.406 0 8 0 0.546 0.493 1 1 1 l 11 0 c 0.516 0 1 -0.437 1 -1 l 0 -7 c 0 -0.577 -0.423 -1.015 -1 -1 l -2 0 0 -1 c 0 -0.487 -0.402 -1 -1 -1 z" style="visibility:visible;fill:#8d6e63;fill-opacity:1;stroke:none;display:inline;color:#000;fill-rule:nonzero"/>
 <path d="m 3 2 c -0.544 0 -1 0.408 -1 1 l -0.536 0 -0.464 0 c -0.507 0 -1 0.396 -1 1 c 0 4.594 0 3.406 0 8 0 0.487 0.419 1 1 1 l 11 0 c 0.521 0 1 -0.443 1 -1 l 0 -7 c 0 -0.573 -0.394 -1 -1 -1 l -2 0 0 -1 c 0 -0.559 -0.457 -1 -1 -1 z m 5 2 0 1 4 0 0 7 -11 0 0 -8 z" style="visibility:visible;fill:#000;fill-opacity:0.322;stroke:none;display:inline;color:#000;fill-rule:nonzero"/>
 <path d="m 3 2 c -0.547 0 -1 0.41 -1 1 l 0 0 -1 0 c -0.502 0 -1 0.385 -1 1 c 0 4.594 0 3.406 0 8 0 0.546 0.493 1 1 1 l 11 0 c 0.516 0 1 -0.437 1 -1 l 0 -7 c 0 -0.577 -0.423 -1.015 -1 -1 l -2 0 0 -1 c 0 -0.487 -0.402 -1 -1 -1 z" style="visibility:visible;fill:#000;fill-opacity:0.102;stroke:none;display:inline;color:#000;fill-rule:nonzero"/>
 <path d="m 9.905 10.5 c -0.22 0.022 -0.405 0.195 -0.405 0.384 l 0 7.237 c 0 0.199 0.212 0.38 0.45 0.38 l 11.1 0 c 0.235 0 0.45 -0.181 0.45 -0.38 l 0 -6.564 c 0 -0.203 -0.216 -0.384 -0.45 -0.384 l -4.334 0 0 -0.289 c 0 -0.199 -0.216 -0.38 -0.45 -0.384 l -6.314 0 c -0.015 0 -0.03 0 -0.045 0 z" style="fill:#8d6e63;stroke:#a57953"/>
 <path d="m 12 8 c -0.547 0 -1 0.41 -1 1 l 0 0 -1 0 c -0.502 0 -1 0.385 -1 1 0 4.594 0 3.406 0 8 0 0.546 0.493 1 1 1 l 11 0 c 0.516 0 1 -0.437 1 -1 l 0 -7 c 0 -0.577 -0.423 -1.015 -1 -1 l -2 0 0 -1 c 0 -0.487 -0.402 -1 -1 -1 z" style="visibility:visible;fill:#8d6e63;fill-opacity:1;stroke:none;display:inline;color:#000;fill-rule:nonzero"/>
 <path d="m 12 8 c -0.544 0 -1 0.408 -1 1 l -0.536 0 -0.464 0 c -0.507 0 -1 0.396 -1 1 0 4.594 0 3.406 0 8 0 0.487 0.419 1 1 1 l 11 0 c 0.521 0 1 -0.443 1 -1 l 0 -7 c 0 -0.573 -0.394 -1 -1 -1 l -2 0 0 -1 c 0 -0.559 -0.457 -1 -1 -1 z m 5 2 0 1 4 0 0 7 -11 0 0 -8 z" style="visibility:visible;fill:#000;fill-opacity:0.322;stroke:none;display:inline;color:#000;fill-rule:nonzero"/>
</svg>
